src/images/person.svg

<svg width="14" height="17" viewBox="0 0 14 17" fill="none" xmlns="http://www.w3.org/2000/svg">
<path d="M9.67087 1.89646C9.02894 1.18139 8.13235 0.787598 7.14273 0.787598C6.14783 0.787598 5.24827 1.179 4.60931 1.88966C3.96342 2.60814 3.64872 3.58461 3.72261 4.63902C3.86907 6.71925 5.40331 8.41148 7.14273 8.41148C8.88215 8.41148 10.4137 6.71959 10.5625 4.6397C10.6374 3.59482 10.3207 2.62039 9.67087 1.89646ZM12.9485 16.0354H1.33697C1.18499 16.0374 1.03447 16.0045 0.89638 15.9389C0.758288 15.8734 0.636091 15.7769 0.538678 15.6566C0.324261 15.3921 0.237834 15.031 0.30183 14.6658C0.580242 13.0723 1.44913 11.7337 2.8148 10.7939C4.02807 9.95975 5.56495 9.50061 7.14273 9.50061C8.72051 9.50061 10.2574 9.96009 11.4707 10.7939C12.8363 11.7333 13.7052 13.0719 13.9836 14.6655C14.0476 15.0307 13.9612 15.3918 13.7468 15.6562C13.6494 15.7767 13.5272 15.8732 13.3891 15.9388C13.251 16.0044 13.1005 16.0374 12.9485 16.0354Z" fill="white"/>
</svg>

<svg xmlns="http://www.w3.org/2000/svg" width="14" height="17" fill="none"><path fill="#fff" d="M9.67 1.896C9.03 1.181 8.133.788 7.144.788c-.995 0-1.895.391-2.534 1.102-.646.718-.96 1.695-.886 2.749.146 2.08 1.68 3.772 3.42 3.772s3.27-1.691 3.42-3.771c.074-1.045-.242-2.02-.892-2.744m3.278 14.14H1.337a1 1 0 0 1-.44-.097 1 1 0 0 1-.358-.282 1.23 1.23 0 0 1-.237-.991c.278-1.594 1.147-2.932 2.513-3.872C4.028 9.96 5.565 9.5 7.143 9.5s3.114.46 4.328 1.293c1.365.94 2.234 2.278 2.513 3.871a1.23 1.23 0 0 1-.237.991c-.098.12-.22.217-.358.283a1 1 0 0 1-.44.096"/></svg>
